components/icon/svg/24/action_help.svg

<?xml version="1.0" encoding="UTF-8"?>
<svg width="24px" height="24px" viewBox="0 0 24 24" version="1.1" xmlns="http://www.w3.org/2000/svg" xmlns:xlink="http://www.w3.org/1999/xlink">
    <!-- Generator: Sketch 64 (93537) - https://sketch.com -->
    <title>ic-db_action_help_24</title>
    <desc>Created with Sketch.</desc>
    <g id="Symbols" stroke="none" stroke-width="1" fill="none" fill-rule="evenodd">
        <g id="24dp-Icon/Action/Help" fill="#282D37">
            <path d="M12,2 C17.5312,2 22,6.4688 22,12 C22,17.5312 17.5312,22 12,22 C6.4688,22 2,17.5312 2,12 C2,6.4688 6.4688,2 12,2 Z M12,4 C7.5938,4 4,7.5938 4,12 C4,16.4062 7.5938,20 12,20 C16.4375,20 20,16.4062 20,12 C20,7.5938 16.4062,4 12,4 Z M9.50169516,7.5312 C9.50169516,6.5312 10.9703952,6.2188 12.2203952,6.2188 C14.0329952,6.2188 15.3453952,7.3125 15.3453952,9 C15.3453952,11.9062 12.7203952,11.7188 12.7203952,13.0625 C12.7203952,13.5312 12.3766952,14.0312 11.7516952,14.0312 C11.2203952,14.0312 10.7829952,13.5938 10.7829952,13.0625 C10.7829952,10.4062 13.4079952,10.75 13.4079952,9 C13.4079952,8.375 12.8453952,8.1562 12.2829952,8.1562 C11.5016952,8.1562 10.8766952,8.5312 10.3766952,8.5 C9.87669516,8.4688 9.47039516,8.0625 9.50169516,7.5312 Z M10.55,16.7812 C10.55,17.5 11.1438,18.0625 11.8313,18.0625 C12.5188,18.0625 13.1126,17.5 13.1126,16.7812 C13.1126,16.0938 12.5188,15.5312 11.8313,15.5312 C11.1438,15.5312 10.55,16.0938 10.55,16.7812 Z" id="🎨-Color"></path>
        </g>
    </g>
</svg>

<svg width="24" height="24" xmlns="http://www.w3.org/2000/svg"><path d="M12 2a9.99 9.99 0 0110 10 9.99 9.99 0 01-10 10A9.99 9.99 0 012 12 9.99 9.99 0 0112 2zm0 2c-4.406 0-8 3.594-8 8 0 4.406 3.594 8 8 8 4.438 0 8-3.594 8-8 0-4.406-3.594-8-8-8zM9.502 7.531c0-1 1.468-1.312 2.718-1.312 1.813 0 3.125 1.093 3.125 2.781 0 2.906-2.625 2.719-2.625 4.063 0 .468-.343.968-.968.968a.973.973 0 01-.969-.969c0-2.656 2.625-2.312 2.625-4.062 0-.625-.563-.844-1.125-.844-.781 0-1.406.375-1.906.344-.5-.031-.907-.438-.875-.969zm1.048 9.25c0 .719.594 1.282 1.281 1.282.688 0 1.282-.563 1.282-1.282 0-.687-.594-1.25-1.282-1.25-.687 0-1.281.563-1.281 1.25z" fill="#282D37" fill-rule="evenodd"/></svg>
